icon-svg/ikea-hogvind.svg

<svg xmlns="http://www.w3.org/2000/svg" fill="#44739e" viewBox="0 0 24 24"><path d="M20.074 7.7c0-2.728-1.329-3.518-2.69-4.092l-.206-.089a.986.986 0 0 0-.824-.124 16.6 16.6 0 0 1-4.348.63 11.6 11.6 0 0 1-4.28-.585 1.32 1.32 0 0 0-.5-.111 1.45 1.45 0 0 0-.432.083l-.02.006a3.586 3.586 0 0 0-2.062 1.727 6.54 6.54 0 0 0-.8 3.052v3.015A3.722 3.722 0 0 0 5.1 13.9a7.75 7.75 0 0 0 2.945 1.734 10.57 10.57 0 0 0 3.362.588l1.153.015A10.266 10.266 0 0 0 17.462 15a4.686 4.686 0 0 0 2.627-4.152Zm-2.765 7.034a9.96 9.96 0 0 1-4.744 1.192l-1.153-.016a9.316 9.316 0 0 1-6.09-2.232 3.42 3.42 0 0 1-1.1-2.464v-3.01C4.3 5.93 5.334 4.168 6.865 3.714l.02-.006a.88.88 0 0 1 .728.019 11.85 11.85 0 0 0 4.394.607 16.7 16.7 0 0 0 4.441-.645c.2-.063.266-.037.606.113l.21.09c1.319.557 2.5 1.267 2.5 3.809l.016 3.149a4.452 4.452 0 0 1-2.471 3.885zM16.72 2.713c0-.373-2.081-.713-4.679-.713s-4.786.333-4.786.706A10.86 10.86 0 0 0 12 3.528a12.64 12.64 0 0 0 4.72-.815m-8.968.662a11.55 11.55 0 0 0 4.254.581 17.7 17.7 0 0 0 3.69-.45c.331-.1.652-.2.957-.324V2.86a12.38 12.38 0 0 1-4.757.783 12.8 12.8 0 0 1-4.733-.783v.322c.057.028.115.055.173.081a1.6 1.6 0 0 1 .416.112m4.812 12.93-1.15-.015a10.66 10.66 0 0 1-3.327-.572v4.971c.048.389.6.7 1.349.932a10.87 10.87 0 0 0 2.338.379h.469a9.44 9.44 0 0 0 1.915-.248 2.98 2.98 0 0 0 1.605-1.14.355.355 0 0 0 .081-.23c.015-1.468-.007-3.87-.014-4.6a10.82 10.82 0 0 1-3.266.523M12 15.451a6.694 6.694 0 0 1-3.916-.891c.084.176.327.534.257.768a10.28 10.28 0 0 0 3.071.512l1.151.016a10.4 10.4 0 0 0 3.1-.488 1.168 1.168 0 0 1 .249-.808 6.824 6.824 0 0 1-3.912.891m.008-11.046a14.03 14.03 0 0 1-3.6-.345c-.156-.046-.312-.1-.469-.155v10.376a8.46 8.46 0 0 0 4.033.955 8.79 8.79 0 0 0 4.089-.955c0-3.4.089-7.029.089-10.429v-.025c-.088.034-.177.066-.266.1a17.75 17.75 0 0 1-3.876.478"/></svg>

<?xml version="1.0" encoding="UTF-8"?>
<svg width="24px" fill="#44739e" height="24px" viewBox="0 0 24 24" version="1.1" xmlns="http://www.w3.org/2000/svg" xmlns:xlink="http://www.w3.org/1999/xlink">
            <path d="m 20.074,7.7 c 0,-2.728 -1.329,-3.518 -2.69,-4.092 L 17.178,3.519 A 0.986,0.986 0 0 0 16.354,3.395 16.6,16.6 0 0 1 12.006,4.025 11.6,11.6 0 0 1 7.726,3.44 1.321,1.321 0 0 0 7.226,3.329 1.449,1.449 0 0 0 6.794,3.412 l -0.02,0.006 a 3.586,3.586 0 0 0 -2.062,1.727 6.539,6.539 0 0 0 -0.8,3.052 v 0 3.015 A 3.722,3.722 0 0 0 5.1,13.9 a 7.748,7.748 0 0 0 2.945,1.734 10.573,10.573 0 0 0 3.362,0.588 l 1.153,0.015 A 10.266,10.266 0 0 0 17.462,15 4.686,4.686 0 0 0 20.089,10.848 Z m -2.765,7.034 a 9.959,9.959 0 0 1 -4.744,1.192 L 11.412,15.91 a 9.316,9.316 0 0 1 -6.09,-2.232 3.42,3.42 0 0 1 -1.1,-2.464 v -3.01 0 C 4.3,5.93 5.334,4.168 6.865,3.714 l 0.02,-0.006 a 0.88,0.88 0 0 1 0.728,0.019 11.847,11.847 0 0 0 4.394,0.607 16.711,16.711 0 0 0 4.441,-0.645 c 0.2,-0.063 0.266,-0.037 0.606,0.113 l 0.21,0.09 c 1.319,0.557 2.5,1.267 2.5,3.809 l 0.016,3.149 a 4.452,4.452 0 0 1 -2.471,3.885 z M 16.72,2.713 C 16.72,2.34 14.639,2 12.041,2 9.443,2 7.255,2.333 7.255,2.706 A 10.86,10.86 0 0 0 12,3.528 12.644,12.644 0 0 0 16.72,2.713 Z M 7.752,3.375 a 11.551,11.551 0 0 0 4.254,0.581 17.7,17.7 0 0 0 3.69,-0.45 c 0.331,-0.1 0.652,-0.2 0.957,-0.324 V 2.86 A 12.381,12.381 0 0 1 11.896,3.643 12.8,12.8 0 0 1 7.163,2.86 V 3.182 C 7.22,3.21 7.278,3.237 7.336,3.263 a 1.589,1.589 0 0 1 0.416,0.112 z m 4.812,12.93 v 0 L 11.414,16.29 A 10.661,10.661 0 0 1 8.087,15.718 v 4.971 c 0.048,0.389 0.6,0.7 1.349,0.932 A 10.871,10.871 0 0 0 11.774,22 h 0.469 a 9.443,9.443 0 0 0 1.915,-0.248 2.981,2.981 0 0 0 1.605,-1.14 0.355,0.355 0 0 0 0.081,-0.23 c 0.015,-1.468 -0.007,-3.87 -0.014,-4.6 a 10.823,10.823 0 0 1 -3.266,0.523 z M 12,15.451 A 6.694,6.694 0 0 1 8.084,14.56 c 0.084,0.176 0.327,0.534 0.257,0.768 a 10.283,10.283 0 0 0 3.071,0.512 v 0 l 1.151,0.016 a 10.4,10.4 0 0 0 3.1,-0.488 A 1.168,1.168 0 0 1 15.912,14.56 6.824,6.824 0 0 1 12,15.451 Z M 12.008,4.405 A 14.029,14.029 0 0 1 8.408,4.06 C 8.252,4.014 8.096,3.96 7.939,3.905 v 10.376 a 8.46,8.46 0 0 0 4.033,0.955 8.792,8.792 0 0 0 4.089,-0.955 c 0,-3.4 0.089,-7.029 0.089,-10.429 V 3.827 c -0.088,0.034 -0.177,0.066 -0.266,0.1 a 17.751,17.751 0 0 1 -3.876,0.478 z"/>

</svg>
